X:117
T:Chinese Dance. RHu.117
S:R.Hughes MS,1823,Whitchurch,Shrops.
A:Whitchurch, Shropshire
Z:Tony Weatherall 2006
M:2/4
L:1/8
Q:1/4=100
R:Country Dance
K:C
cc'ba|g/a/g/f/ eg|eg eg|g/f/e/f/ de/d/|!
cc'ba|g/a/g/f/ eg|eg g/f/d/B/|c2c2:|!
|:Bd Bd|B/c/d/e/ fd|ce ce|c/d/e/f/ ga/b/|!
c'gg a/b/|c'gg a/b/|c'gge|(e2d2):|



